!!!COM: Palestrina, Giovanni Perluigi da
!!!OPR: Repleatur os meum laude
!!!OTL: Benedictus
**kern	**kern	**kern
*Itenor	*Icalto	*Icant
!Tenor	!Altus	!Cantus
*clefGv2	*clefG2	*clefG2
*k[]	*k[]	*k[]
*E:phr	*E:phr	*E:phr
*M4/2	*M4/2	*M4/2
=1	=1	=1
1.A	0r	0r
2A	.	.
=2	=2	=2
2B	0r	0r
2G	.	.
1c	.	.
=3	=3	=3
2B	1r	0r
1A	.	.
.	[1e	.
4G	.	.
4F	.	.
=4	=4	=4
2G	2e]	0r
2A	2e	.
2D	2f	.
[2G	2d	.
=5	=5	=5
4G]	1g	1r
4A	.	.
4B	.	.
4c	.	.
2d	2f	[1a
4c	[2e	.
4B	.	.
=6	=6	=6
1A	2e]	2a]
.	4d	2a
.	4c	.
2G	2d	2b
[2c	2e	2g
=7	=7	=7
4c]	4A	1cc
4B	4B	.
2A	4c	.
.	4d	.
2G	4e	2b
.	4d	.
4F	[2f	[2a
4G	.	.
=8	=8	=8
4A	2f]	2a]
4B	.	.
1c	4e	4g
.	4d	4f
.	2e	2g
2A	[2f	2a
=9	=9	=9
1B-	4f]	4d
.	4e	4e
.	2d	4f
.	.	4g
1A	2c	4a
.	.	4b
.	[2e	2cc
=10	=10	=10
1r	4e]	2b
.	4d	.
.	2c	1a
[1E	[1B	.
.	.	4g
.	.	4f#
=11	=11	=11
2E]	1B]	4g
.	.	4f
2E	.	4e
.	.	4d
2F	1A	2c
2D	.	2f
=12	=12	=12
2.A	2r	1e
.	1e	.
8G	.	.
8F	.	.
2G	.	2r
2A	2e	[2a
=13	=13	=13
2D	2f	2a]
2F	2d	2a
1E	1g	2b
.	.	2g
=14	=14	=14
1A	2f	1cc
.	2.e	.
2G#	.	2b
.	4d	.
2A	2c	[2a
=15	=15	=15
1E	2B	2a]
.	2.e	4g
.	.	4f#
1r	.	2g
.	4d	.
.	4c	[2a
.	4B	.
=16	=16	=16
1r	2A	2a]
.	2B	4g
.	.	4f
[1A	2c	2e
.	[2d	2d
=17	=17	=17
2A]	2d]	1e
2A	2c#	.
2B	2d	2d
2G	2B	[2g
=18	=18	=18
1c	1e	4g]
.	.	4e
.	.	2a
2B	2d	2g
[2A	[2c	2f
=19	=19	=19
2A]	2c]	2.e
4G	4B	.
4F	4A	4d
2G	2B	1e
2A	2c#	.
=20	=20	=20
4D	1d	1f
4E	.	.
4F	.	.
4G	.	.
2.A	2c	1e
.	4A	.
4G	4B	.
=21	=21	=21
4A	4c	2r
4B	4d	.
1c	4e	2g
.	4d	.
.	4e	2a
.	4f#	.
2B	[2g	2b
=22	=22	=22
1A	2g]	1.cc
.	2f	.
1G	2e	.
.	4d	4b
.	4c	4a
=23	=23	=23
2r	1d	4b
.	.	4a
2G	.	4g
.	.	4f
2A	1r	2e
2B	.	2d
=24	=24	=24
1.c	0r	2.e
.	.	4f
.	.	[1g
4B	.	.
4A	.	.
=25	=25	=25
2B	1r	2g]
4c	.	2g
4B	.	.
4A	2r	[1a
4G	.	.
4F	2c	.
4E	.	.
=26	=26	=26
2D	2d	0a]
2C	2e	.
4D	[1f	.
4E	.	.
4F	.	.
4G	.	.
=27	=27	=27
4A	2f]	0r
4G	.	.
4A	4e	.
4B	4d	.
2c	2e	.
[2A	[2f	.
=28	=28	=28
4A]	4f]	2r
4G	4e	.
2E	1e	2g
2F	.	2a
2G	2d	2b
=29	=29	=29
4C	1e	1.cc
4D	.	.
4E	.	.
4F	.	.
[1G	2r	.
.	[2d	4b
.	.	4a
=30	=30	=30
1G]	2d]	2b
.	2e	2g
1r	2f#	2a
.	2g	2b
=31	=31	=31
0r	4e	1.cc
.	4d	.
.	4c	.
.	4d	.
.	4e	.
.	4f	.
.	[2g	4b
.	.	4a
=32	=32	=32
1G	4g]	4b
.	4f	4a
.	4e	4g
.	4d	4f
2A	2c	2e
2B	2B	2d
=33	=33	=33
1.c	2A	2e
.	2A	2c
.	1G	[1d
4B	.	.
4A	.	.
=34	=34	=34
4B	2r	1d]
4A	.	.
4G	2d	.
4F	.	.
2E	2e	2r
2D	2f#	2a
=35	=35	=35
2G	1.g	2b
2E	.	2cc#
1D	.	2.dd
.	4f	.
.	4e	8cc
.	.	8b
=36	=36	=36
0r	2f#	2a
.	4g	2b
.	4f	.
.	4e	[1cc
.	4d	.
.	4c	.
.	4B	.
=37	=37	=37
2r	2A	2cc]
2E	2.e	2b
2F	.	2a
.	4d	.
2G	[2d	4g
.	.	4f
=38	=38	=38
1A	2d]	2.e
.	4c	.
.	4B	4d
2r	4c	4e
.	4d	4f
2G	[2e	2g
=39	=39	=39
2A	2e]	1f
2B	2d	.
1c	1e	2e
.	.	2g
=40	=40	=40
2F	1d	2a
2G	.	2b
1A	2r	[1cc
.	2c	.
=41	=41	=41
2r	2d	2cc]
2G	2e	2b
2A	[1f	1a
2B	.	.
=42	=42	=42
0c	2f]	0g
.	4e	.
.	4d	.
.	1e	.
=43	=43	=43
1.F	1.f	1.a
2c	2e	2g
=44	=44	=44
0c	0e	0g
==	==	==
*-	*-	*-
!!!CDT: 1525/^1526/-1594/2/2
!!!OCY: Italia
!!!AGN: Mass (Canonic)
!!!AST: renaissance, vocal
!!!ASW: Motet 1538 (Jacquet)
!!!PWK: Masses, Book 3
!!!RNB: Cadence finals: A,G,C
!!!YOR: Le Opere Complete, v. 6, p. 136
!!!YOO: Rome, Italy: Fratelli Scalera
!!!END: 1992//
!!!EED: John Miller
!!!YEC: Copyright 2000, John Miller
!!!YEN: United States of America
!!!YEM: Rights to all derivative electronic formats reserved.
!!!YEM: Refer to licensing agreement for further details.
!!!YEM: This file must be accompanied by the licensing agreement.
!!!YEM: A copy of the licensing agreement may be found at http://www.music-cog.ohio-state.edu/HumdrumDatabases/Palestrina/license.txt
!!!EMD: converted to Humdrum by Bret Aarden
